; G-Code generated by Simplify3D(R) Version 4.1.2
; May 7, 2022 at 1:28:35 PM
; Settings Summary
;   processName,SmallPartsProcess
;   applyToModels,ZeroPositionActuatorV,ZeroPositionActuator
;   profileName,MM2 Hapkit (modified)
;   profileVersion,2022-01-04 17:10:46
;   baseProfile,MendelMax 2.0 (modified)
;   printMaterial,PLA
;   printQuality,Medium
;   printExtruders,
;   extruderName,Primary Extruder
;   extruderToolheadNumber,0
;   extruderDiameter,0.4
;   extruderAutoWidth,1
;   extruderWidth,0.48
;   extrusionMultiplier,0.9
;   extruderUseRetract,1
;   extruderRetractionDistance,1
;   extruderExtraRestartDistance,0
;   extruderRetractionZLift,0
;   extruderRetractionSpeed,1800
;   extruderUseCoasting,0
;   extruderCoastingDistance,0.2
;   extruderUseWipe,0
;   extruderWipeDistance,5
;   primaryExtruder,0
;   layerHeight,0.2
;   topSolidLayers,5
;   bottomSolidLayers,3
;   perimeterOutlines,3
;   printPerimetersInsideOut,1
;   startPointOption,2
;   startPointOriginX,0
;   startPointOriginY,0
;   sequentialIslands,0
;   spiralVaseMode,0
;   firstLayerHeightPercentage,90
;   firstLayerWidthPercentage,100
;   firstLayerUnderspeed,0.5
;   useRaft,0
;   raftExtruder,0
;   raftTopLayers,3
;   raftBaseLayers,2
;   raftOffset,3
;   raftSeparationDistance,0.1
;   raftTopInfill,100
;   aboveRaftSpeedMultiplier,0.3
;   useSkirt,1
;   skirtExtruder,0
;   skirtLayers,1
;   skirtOutlines,4
;   skirtOffset,4
;   usePrimePillar,0
;   primePillarExtruder,999
;   primePillarWidth,12
;   primePillarLocation,7
;   primePillarSpeedMultiplier,1
;   useOozeShield,0
;   oozeShieldExtruder,999
;   oozeShieldOffset,2
;   oozeShieldOutlines,1
;   oozeShieldSidewallShape,1
;   oozeShieldSidewallAngle,30
;   oozeShieldSpeedMultiplier,1
;   infillExtruder,0
;   internalInfillPattern,Rectilinear
;   externalInfillPattern,Concentric
;   infillPercentage,100
;   outlineOverlapPercentage,15
;   infillExtrusionWidthPercentage,100
;   minInfillLength,5
;   infillLayerInterval,1
;   internalInfillAngles,45,-45
;   overlapInternalInfillAngles,0
;   externalInfillAngles,45,-45
;   generateSupport,0
;   supportExtruder,0
;   supportInfillPercentage,30
;   supportExtraInflation,0
;   supportBaseLayers,0
;   denseSupportExtruder,0
;   denseSupportLayers,0
;   denseSupportInfillPercentage,70
;   supportLayerInterval,1
;   supportHorizontalPartOffset,0.3
;   supportUpperSeparationLayers,1
;   supportLowerSeparationLayers,1
;   supportType,0
;   supportGridSpacing,4
;   maxOverhangAngle,45
;   supportAngles,0
;   temperatureName,Primary Extruder,Heated Bed
;   temperatureNumber,0,2
;   temperatureSetpointCount,2,2
;   temperatureSetpointLayers,1,3,1,3
;   temperatureSetpointTemperatures,215,205,80,70
;   temperatureStabilizeAtStartup,1,1
;   temperatureHeatedBed,0,1
;   fanLayers,1,4
;   fanSpeeds,0,100
;   blipFanToFullPower,0
;   adjustSpeedForCooling,1
;   minSpeedLayerTime,15
;   minCoolingSpeedSlowdown,20
;   increaseFanForCooling,0
;   minFanLayerTime,45
;   maxCoolingFanSpeed,100
;   increaseFanForBridging,0
;   bridgingFanSpeed,100
;   use5D,1
;   relativeEdistances,0
;   allowEaxisZeroing,1
;   independentExtruderAxes,0
;   includeM10123,0
;   stickySupport,1
;   applyToolheadOffsets,0
;   gcodeXoffset,0
;   gcodeYoffset,0
;   gcodeZoffset,0.1
;   overrideMachineDefinition,1
;   machineTypeOverride,0
;   strokeXoverride,205
;   strokeYoverride,250
;   strokeZoverride,200
;   originOffsetXoverride,0
;   originOffsetYoverride,0
;   originOffsetZoverride,0
;   homeXdirOverride,-1
;   homeYdirOverride,-1
;   homeZdirOverride,-1
;   flipXoverride,1
;   flipYoverride,-1
;   flipZoverride,1
;   toolheadOffsets,0,0|0,0|0,0|0,0|0,0|0,0
;   overrideFirmwareConfiguration,1
;   firmwareTypeOverride,RepRap (Marlin/Repetier/Sprinter)
;   GPXconfigOverride,r2
;   baudRateOverride,250000
;   overridePrinterModels,1
;   printerModelsOverride
;   startingGcode,G21 ;metric values,G90 ;absolute positioning,M82 ;set extruder to absolute mode,M107 ;start with the fan off,G28 X0 Y0 ;move X/Y to min endstops,G28 Z0 ;move Z to min endstops,G29 ;bed levelling,G1 Z15.0 F1000 ;move the platform down 15mm,G92 E0 ;zero the extruded length,G1 F200 E3 ;extrude 3mm of feed stock,G92 E0 ;zero the extruded length again,G28
;   layerChangeGcode,
;   retractionGcode,
;   toolChangeGcode,
;   endingGcode,M104 S0 ;extruder heater off,M140 S0 ;heated bed heater off (if you have it),G91 ;relative positioning,G1 E-1 F300  ;retract the filament a bit before lifting the nozzle, to release some of the pressure,G1 Z+0.5 E-5 X-20 Y-20 F9000 ;move Z up a bit and retract filament even more,G28 X0 Y0 ;move X/Y to min endstops, so the head is out of the way,G1 Y150 F5000 ;move completed part out,M84 ;steppers off,M107 ;fans off,G90 ;absolute positioning,
;   exportFileFormat,gcode
;   celebration,0
;   celebrationSong,Random Song
;   postProcessing,
;   defaultSpeed,3600
;   outlineUnderspeed,0.5
;   solidInfillUnderspeed,0.8
;   supportUnderspeed,0.8
;   rapidXYspeed,4800
;   rapidZspeed,1000
;   minBridgingArea,50
;   bridgingExtraInflation,0
;   bridgingExtrusionMultiplier,1
;   bridgingSpeedMultiplier,1
;   useFixedBridgingAngle,0
;   fixedBridgingAngle,0
;   applyBridgingToPerimeters,0
;   filamentDiameters,3|3|3|3|3|3
;   filamentPricesPerKg,46|46|46|46|46|46
;   filamentDensities,1.25|1.25|1.25|1.25|1.25|1.25
;   useMinPrintHeight,0
;   minPrintHeight,0
;   useMaxPrintHeight,0
;   maxPrintHeight,0
;   useDiaphragm,0
;   diaphragmLayerInterval,20
;   robustSlicing,1
;   mergeAllIntoSolid,0
;   onlyRetractWhenCrossingOutline,1
;   retractBetweenLayers,1
;   useRetractionMinTravel,0
;   retractionMinTravel,3
;   retractWhileWiping,0
;   onlyWipeOutlines,1
;   avoidCrossingOutline,0
;   maxMovementDetourFactor,3
;   toolChangeRetractionDistance,12
;   toolChangeExtraRestartDistance,-0.5
;   toolChangeRetractionSpeed,600
;   externalThinWallType,0
;   internalThinWallType,2
;   thinWallAllowedOverlapPercentage,10
;   singleExtrusionMinLength,1
;   singleExtrusionMinPrintingWidthPercentage,50
;   singleExtrusionMaxPrintingWidthPercentage,200
;   singleExtrusionEndpointExtension,0.2
;   horizontalSizeCompensation,0
G90
M82
M106 S0
M140 S80
M190 S80
M104 S215 T0
M109 S215 T0
G21 ;metric values
G90 ;absolute positioning
M82 ;set extruder to absolute mode
M107 ;start with the fan off
G28 X0 Y0 ;move X/Y to min endstops
G28 Z0 ;move Z to min endstops
G29 ;bed levelling
G1 Z15.0 F1000 ;move the platform down 15mm
G92 E0 ;zero the extruded length
G1 F200 E3 ;extrude 3mm of feed stock
G92 E0 ;zero the extruded length again
G28
; process SmallPartsProcess
; layer 1, Z = 0.280
T0
G92 E0.0000
G1 E-1.0000 F1800
; feature skirt
; tool H0.180 W0.480
G1 Z0.280 F1000
G1 X86.874 Y97.464 F4800
G1 E0.0000 F1800
G92 E0.0000
G1 X89.383 Y96.551 E0.0294 F1800
G1 X89.572 Y96.490 E0.0316
G1 X90.635 Y96.185 E0.0437
G1 X90.827 Y96.137 E0.0459
G1 X91.909 Y95.907 E0.0581
G1 X92.104 Y95.873 E0.0602
G1 X93.199 Y95.719 E0.0724
G1 X93.396 Y95.698 E0.0746
G1 X94.489 Y95.622 E0.0866
G1 X94.685 Y95.615 E0.0888
G1 X95.800 Y95.614 E0.1011
G1 X96.000 Y95.621 E0.1033
G1 X97.104 Y95.698 E0.1154
G1 X97.301 Y95.719 E0.1176
G1 X98.396 Y95.873 E0.1298
G1 X98.591 Y95.907 E0.1320
G1 X99.673 Y96.137 E0.1441
G1 X99.865 Y96.185 E0.1463
G1 X100.928 Y96.490 E0.1585
G1 X101.117 Y96.551 E0.1607
G1 X102.872 Y97.190 E0.1812
G1 X104.628 Y96.551 E0.2018
G1 X104.817 Y96.490 E0.2039
G1 X105.879 Y96.185 E0.2161
G1 X106.072 Y96.137 E0.2183
G1 X107.153 Y95.907 E0.2304
G1 X107.349 Y95.873 E0.2326
G1 X108.443 Y95.719 E0.2448
G1 X108.641 Y95.698 E0.2470
G1 X109.744 Y95.621 E0.2591
G1 X109.942 Y95.614 E0.2613
G1 X111.048 Y95.614 E0.2735
G1 X111.246 Y95.621 E0.2757
G1 X112.349 Y95.698 E0.2878
G1 X112.546 Y95.719 E0.2900
G1 X113.641 Y95.873 E0.3022
G1 X113.836 Y95.907 E0.3044
G1 X114.918 Y96.137 E0.3165
G1 X115.110 Y96.185 E0.3187
G1 X116.173 Y96.490 E0.3309
G1 X116.361 Y96.551 E0.3330
G1 X118.876 Y97.466 E0.3625
G1 X120.930 Y100.400 E0.4019
G1 X120.930 Y144.035 E0.8819
G1 X120.926 Y144.194 E0.8836
G1 X120.882 Y144.965 E0.8921
G1 X120.847 Y145.281 E0.8956
G1 X120.704 Y146.121 E0.9050
G1 X120.633 Y146.431 E0.9085
G1 X120.397 Y147.250 E0.9179
G1 X120.292 Y147.550 E0.9214
G1 X119.966 Y148.337 E0.9308
G1 X119.828 Y148.624 E0.9343
G1 X119.416 Y149.369 E0.9436
G1 X119.247 Y149.639 E0.9471
G1 X118.754 Y150.334 E0.9565
G1 X118.555 Y150.583 E0.9600
G1 X117.988 Y151.218 E0.9694
G1 X117.762 Y151.443 E0.9729
G1 X117.128 Y152.010 E0.9822
G1 X116.878 Y152.209 E0.9857
G1 X116.184 Y152.702 E0.9951
G1 X115.914 Y152.871 E0.9986
G1 X115.169 Y153.283 E1.0080
G1 X114.882 Y153.422 E1.0115
G1 X114.095 Y153.747 E1.0209
G1 X113.794 Y153.853 E1.0244
G1 X112.976 Y154.088 E1.0337
G1 X112.665 Y154.159 E1.0372
G1 X111.827 Y154.302 E1.0466
G1 X111.514 Y154.337 E1.0501
G1 X110.664 Y154.386 E1.0594
G1 X110.342 Y154.386 E1.0630
G1 X109.491 Y154.338 E1.0723
G1 X109.174 Y154.302 E1.0759
G1 X108.334 Y154.160 E1.0852
G1 X108.024 Y154.089 E1.0887
G1 X107.206 Y153.853 E1.0981
G1 X106.905 Y153.748 E1.1016
G1 X106.118 Y153.422 E1.1110
G1 X105.831 Y153.284 E1.1145
G1 X105.086 Y152.872 E1.1238
G1 X104.816 Y152.702 E1.1273
G1 X104.122 Y152.210 E1.1367
G1 X103.872 Y152.011 E1.1402
G1 X103.238 Y151.444 E1.1496
G1 X103.012 Y151.218 E1.1531
G1 X102.877 Y151.067 E1.1553
G1 X102.743 Y151.218 E1.1575
G1 X102.518 Y151.443 E1.1610
G1 X101.883 Y152.010 E1.1704
G1 X101.634 Y152.209 E1.1739
G1 X100.939 Y152.702 E1.1833
G1 X100.670 Y152.871 E1.1868
G1 X99.924 Y153.283 E1.1961
G1 X99.637 Y153.422 E1.1997
G1 X98.850 Y153.747 E1.2090
G1 X98.550 Y153.853 E1.2125
G1 X97.732 Y154.088 E1.2219
G1 X97.421 Y154.159 E1.2254
G1 X96.581 Y154.302 E1.2348
G1 X96.265 Y154.337 E1.2383
G1 X95.416 Y154.385 E1.2476
G1 X95.100 Y154.385 E1.2511
G1 X94.250 Y154.338 E1.2605
G1 X93.930 Y154.303 E1.2640
G1 X93.090 Y154.160 E1.2734
G1 X92.779 Y154.089 E1.2769
G1 X91.961 Y153.853 E1.2863
G1 X91.660 Y153.748 E1.2898
G1 X90.874 Y153.422 E1.2991
G1 X90.586 Y153.284 E1.3026
G1 X89.841 Y152.872 E1.3120
G1 X89.571 Y152.702 E1.3155
G1 X88.877 Y152.210 E1.3249
G1 X88.628 Y152.011 E1.3284
G1 X87.993 Y151.444 E1.3377
G1 X87.767 Y151.218 E1.3413
G1 X87.200 Y150.583 E1.3506
G1 X87.002 Y150.334 E1.3541
G1 X86.509 Y149.640 E1.3635
G1 X86.339 Y149.370 E1.3670
G1 X85.927 Y148.625 E1.3764
G1 X85.789 Y148.338 E1.3799
G1 X85.463 Y147.551 E1.3892
G1 X85.358 Y147.250 E1.3927
G1 X85.122 Y146.432 E1.4021
G1 X85.051 Y146.121 E1.4056
G1 X84.909 Y145.282 E1.4150
G1 X84.873 Y144.965 E1.4185
G1 X84.830 Y144.195 E1.4270
G1 X84.825 Y144.036 E1.4287
G1 X84.820 Y100.399 E1.9088
G1 X86.874 Y97.464 E1.9482
G92 E0.0000
G1 E-1.0000 F1800
G1 X87.181 Y97.864 F4800
G1 E0.0000 F1800
G92 E0.0000
G1 X89.540 Y97.005 E0.0276 F1800
G1 X89.712 Y96.949 E0.0296
G1 X90.759 Y96.649 E0.0416
G1 X90.935 Y96.605 E0.0436
G1 X92.000 Y96.379 E0.0556
G1 X92.179 Y96.347 E0.0576
G1 X93.257 Y96.195 E0.0695
G1 X93.438 Y96.177 E0.0715
G1 X94.514 Y96.101 E0.0834
G1 X94.694 Y96.095 E0.0854
G1 X95.792 Y96.094 E0.0975
G1 X95.975 Y96.101 E0.0995
G1 X97.062 Y96.177 E0.1115
G1 X97.243 Y96.195 E0.1135
G1 X98.321 Y96.347 E0.1254
G1 X98.500 Y96.379 E0.1274
G1 X99.565 Y96.605 E0.1394
G1 X99.741 Y96.649 E0.1414
G1 X100.788 Y96.949 E0.1534
G1 X100.960 Y97.005 E0.1554
G1 X102.872 Y97.701 E0.1778
G1 X104.784 Y97.005 E0.2002
G1 X104.957 Y96.949 E0.2022
G1 X106.004 Y96.649 E0.2141
G1 X106.180 Y96.605 E0.2161
G1 X107.245 Y96.379 E0.2281
G1 X107.424 Y96.347 E0.2301
G1 X108.502 Y96.196 E0.2421
G1 X108.682 Y96.177 E0.2441
G1 X109.769 Y96.101 E0.2561
G1 X109.950 Y96.094 E0.2581
G1 X111.039 Y96.094 E0.2700
G1 X111.221 Y96.101 E0.2720
G1 X112.307 Y96.177 E0.2840
G1 X112.487 Y96.196 E0.2860
G1 X113.566 Y96.347 E0.2980
G1 X113.744 Y96.379 E0.3000
G1 X114.810 Y96.605 E0.3120
G1 X114.986 Y96.649 E0.3140
G1 X116.032 Y96.949 E0.3259
G1 X116.205 Y97.005 E0.3279
G1 X118.569 Y97.866 E0.3556
G1 X120.450 Y100.552 E0.3917
G1 X120.450 Y144.028 E0.8700
G1 X120.446 Y144.174 E0.8716
G1 X120.404 Y144.924 E0.8798
G1 X120.371 Y145.214 E0.8830
G1 X120.233 Y146.027 E0.8921
G1 X120.168 Y146.312 E0.8953
G1 X119.940 Y147.104 E0.9044
G1 X119.843 Y147.379 E0.9076
G1 X119.528 Y148.141 E0.9167
G1 X119.401 Y148.404 E0.9199
G1 X119.002 Y149.125 E0.9290
G1 X118.847 Y149.373 E0.9322
G1 X118.370 Y150.045 E0.9412
G1 X118.188 Y150.273 E0.9444
G1 X117.639 Y150.888 E0.9535
G1 X117.433 Y151.094 E0.9567
G1 X116.818 Y151.644 E0.9658
G1 X116.590 Y151.825 E0.9690
G1 X115.917 Y152.303 E0.9781
G1 X115.670 Y152.458 E0.9813
G1 X114.949 Y152.857 E0.9904
G1 X114.686 Y152.983 E0.9936
G1 X113.924 Y153.299 E1.0026
G1 X113.649 Y153.395 E1.0058
G1 X112.856 Y153.623 E1.0149
G1 X112.572 Y153.688 E1.0181
G1 X111.760 Y153.826 E1.0272
G1 X111.473 Y153.859 E1.0304
G1 X110.650 Y153.906 E1.0394
G1 X110.355 Y153.906 E1.0427
G1 X109.531 Y153.860 E1.0518
G1 X109.241 Y153.827 E1.0550
G1 X108.428 Y153.689 E1.0640
G1 X108.144 Y153.624 E1.0672
G1 X107.351 Y153.396 E1.0763
G1 X107.076 Y153.299 E1.0795
G1 X106.314 Y152.984 E1.0886
G1 X106.051 Y152.857 E1.0918
G1 X105.330 Y152.458 E1.1009
G1 X105.083 Y152.303 E1.1041
G1 X104.410 Y151.826 E1.1132
G1 X104.182 Y151.644 E1.1164
G1 X103.567 Y151.095 E1.1254
G1 X103.361 Y150.888 E1.1286
G1 X102.877 Y150.347 E1.1366
G1 X102.394 Y150.888 E1.1446
G1 X102.188 Y151.094 E1.1478
G1 X101.573 Y151.643 E1.1569
G1 X101.345 Y151.825 E1.1601
G1 X100.673 Y152.303 E1.1692
G1 X100.426 Y152.458 E1.1724
G1 X99.704 Y152.857 E1.1814
G1 X99.441 Y152.983 E1.1847
G1 X98.679 Y153.299 E1.1937
G1 X98.404 Y153.395 E1.1969
G1 X97.612 Y153.623 E1.2060
G1 X97.327 Y153.688 E1.2092
G1 X96.514 Y153.826 E1.2183
G1 X96.225 Y153.859 E1.2215
G1 X95.403 Y153.905 E1.2305
G1 X95.113 Y153.905 E1.2337
G1 X94.290 Y153.860 E1.2428
G1 X93.997 Y153.827 E1.2460
G1 X93.183 Y153.689 E1.2551
G1 X92.899 Y153.624 E1.2583
G1 X92.107 Y153.396 E1.2674
G1 X91.831 Y153.299 E1.2706
G1 X91.070 Y152.984 E1.2797
G1 X90.807 Y152.857 E1.2829
G1 X90.085 Y152.458 E1.2920
G1 X89.838 Y152.303 E1.2952
G1 X89.166 Y151.826 E1.3042
G1 X88.938 Y151.644 E1.3075
G1 X88.323 Y151.095 E1.3165
G1 X88.116 Y150.888 E1.3197
G1 X87.567 Y150.273 E1.3288
G1 X87.385 Y150.045 E1.3320
G1 X86.908 Y149.373 E1.3411
G1 X86.753 Y149.126 E1.3443
G1 X86.354 Y148.404 E1.3534
G1 X86.227 Y148.141 E1.3566
G1 X85.912 Y147.380 E1.3656
G1 X85.816 Y147.104 E1.3689
G1 X85.587 Y146.312 E1.3779
G1 X85.522 Y146.028 E1.3811
G1 X85.384 Y145.215 E1.3902
G1 X85.352 Y144.925 E1.3934
G1 X85.309 Y144.175 E1.4017
G1 X85.305 Y144.029 E1.4033
G1 X85.300 Y100.550 E1.8816
G1 X87.181 Y97.864 E1.9177
G92 E0.0000
G1 E-1.0000 F1800
G1 X87.487 Y98.263 F4800
G1 E0.0000 F1800
G92 E0.0000
G1 X89.696 Y97.459 E0.0259 F1800
G1 X89.853 Y97.408 E0.0277
G1 X90.883 Y97.113 E0.0395
G1 X91.043 Y97.073 E0.0413
G1 X92.092 Y96.850 E0.0531
G1 X92.254 Y96.821 E0.0549
G1 X93.316 Y96.672 E0.0667
G1 X93.480 Y96.655 E0.0685
G1 X94.539 Y96.581 E0.0802
G1 X94.703 Y96.575 E0.0820
G1 X95.784 Y96.574 E0.0939
G1 X95.950 Y96.580 E0.0957
G1 X97.020 Y96.655 E0.1075
G1 X97.184 Y96.672 E0.1093
G1 X98.246 Y96.821 E0.1211
G1 X98.408 Y96.850 E0.1229
G1 X99.457 Y97.073 E0.1347
G1 X99.617 Y97.113 E0.1365
G1 X100.647 Y97.408 E0.1483
G1 X100.804 Y97.459 E0.1501
G1 X102.872 Y98.212 E0.1743
G1 X104.941 Y97.459 E0.1986
G1 X105.097 Y97.408 E0.2004
G1 X106.128 Y97.113 E0.2122
G1 X106.288 Y97.073 E0.2140
G1 X107.336 Y96.850 E0.2258
G1 X107.499 Y96.821 E0.2276
G1 X108.560 Y96.672 E0.2394
G1 X108.724 Y96.655 E0.2412
G1 X109.794 Y96.580 E0.2530
G1 X109.959 Y96.574 E0.2548
G1 X111.031 Y96.574 E0.2666
G1 X111.195 Y96.580 E0.2684
G1 X112.265 Y96.655 E0.2802
G1 X112.429 Y96.672 E0.2820
G1 X113.491 Y96.821 E0.2938
G1 X113.653 Y96.850 E0.2956
G1 X114.702 Y97.073 E0.3074
G1 X114.861 Y97.113 E0.3092
G1 X115.892 Y97.408 E0.3210
G1 X116.049 Y97.459 E0.3228
G1 X118.263 Y98.265 E0.3488
G1 X119.970 Y100.703 E0.3815
G1 X119.970 Y144.021 E0.8580
G1 X119.966 Y144.154 E0.8595
G1 X119.925 Y144.884 E0.8675
G1 X119.896 Y145.147 E0.8705
G1 X119.762 Y145.933 E0.8792
G1 X119.703 Y146.192 E0.8821
G1 X119.482 Y146.958 E0.8909
G1 X119.395 Y147.208 E0.8938
G1 X119.090 Y147.945 E0.9026
G1 X118.975 Y148.183 E0.9055
